src/shared/assets/random-match/icon-photo.svg

<svg width="36" height="36" viewBox="0 0 36 36" fill="none" xmlns="http://www.w3.org/2000/svg">
<path d="M18.25 9C26.2381 9 27.5 10.323 27.5 17.75C27.5 25.177 26.2381 26.5 18.25 26.5C10.2619 26.5 9 25.177 9 17.75C9 10.323 10.2619 9 18.25 9ZM24.457 15.083C24.2049 15.0065 24.0456 15.0429 23.7275 15.1143C22.3514 15.4232 21.3973 16.3161 20.7568 17.2314C20.1134 18.1511 19.7914 18.6109 19.6953 18.7061C19.3202 19.0774 19.5882 18.9158 19.084 19.0723C18.9545 19.1124 18.2849 19.1937 16.9463 19.3564C14.8269 19.6141 13.972 20.7366 13.3838 22.3076C13.2729 22.6037 13.2179 22.752 13.2588 23.0117C13.2864 23.1867 13.4481 23.4835 13.5801 23.6016C13.7762 23.7767 13.9109 23.8066 14.1797 23.8652C15.058 24.0569 16.5029 24.25 18.7598 24.25C20.6699 24.25 21.9989 24.1118 22.8945 23.9531C23.1513 23.9076 23.2799 23.8849 23.6748 23.6484C23.905 23.5106 24.3881 23.0301 24.5273 22.8008C24.7661 22.4075 24.8011 22.2139 24.8721 21.8271C25.1926 20.0807 25.3393 18.3407 25.1914 16.334C25.1604 15.9138 25.1444 15.7035 24.998 15.4844C24.8943 15.3293 24.6354 15.1371 24.457 15.083ZM14.499 12C13.2564 12 12.249 13.0074 12.249 14.25C12.249 15.4926 13.2564 16.5 14.499 16.5C15.7417 16.5 16.749 15.4926 16.749 14.25C16.749 13.0074 15.7417 12 14.499 12Z" fill="#E8CE83"/>
</svg>

<svg xmlns="http://www.w3.org/2000/svg" fill="none" viewBox="0 0 36 36"><path fill="#e8ce83" d="M18.25 9c7.988 0 9.25 1.323 9.25 8.75s-1.262 8.75-9.25 8.75S9 25.177 9 17.75 10.262 9 18.25 9m6.207 6.083c-.252-.076-.411-.04-.73.031-1.376.31-2.33 1.202-2.97 2.117-.644.92-.966 1.38-1.062 1.475-.375.371-.107.21-.611.366-.13.04-.8.122-2.138.284-2.12.258-2.974 1.38-3.562 2.952-.111.296-.166.444-.125.704.027.175.19.471.321.59.196.175.33.205.6.263.878.192 2.323.385 4.58.385 1.91 0 3.239-.138 4.134-.297.257-.045.386-.068.78-.305.231-.137.714-.618.853-.847.24-.393.274-.587.345-.974.32-1.746.467-3.486.32-5.493-.032-.42-.048-.63-.194-.85a1.23 1.23 0 0 0-.541-.401M14.499 12a2.25 2.25 0 1 0 0 4.5 2.25 2.25 0 0 0 0-4.5"/></svg>
